X: 19242
T: It's On
R: reel
M: 4/4
K: Bminor
|:fBBg BBfB|fBdf e^gae|fBBg BBfB|Aa^ga eAce|
fBBg BBfB|fBdf e^gaf|gBBg fBdf|eBcd eAcA:|
|:A3 A dAcA|dAde fgaf|g3 g gefg|fefg aecA|
A3 A dAcA|dAde fgaf|g3 g gefg|aecA d4:|

